X:1
T:Te lucis
T:Te lucis
T:André Vierendeels (15/09/10)
C:André Vierendeels
C:(15/09/10)
%%score [ 1 2 3 4 ]
L:1/8
Q:1/4=120
M:2/4
K:F
V:1 treble nm="Soprano" snm="S"
V:2 treble nm="Alto" snm="A"
V:3 treble-8 nm="Tenor" snm="T"
V:4 bass nm="Bass" snm="B"
V:1
 D4 |[M:2/2] D2 F2 D2 ^C2 | D4 E4 | F4 E4 | !fermata!D4 F4 | F4 F4 | E4 E4 | A4 F4 | %8
w: Te|lu- * * cis|an- te|ter- mi-|num, re-|rum Cre-|a- *|po- sci-|
 !fermata!E4 E4 | G4 G4 | G4 E4 | F4 E4 | !fermata!D4 E4 | F4 D2 ^C2 | D4 E4 | F4 E4 | %16
w: mus, ut|so- li-|ta cle-|men- ti-|a sis|prae- sul _|et cu-|sto- di-|
 !fermata!D8 |] %17
w: a.|
V:2
 A4 |[M:2/2] G2 F2 E4 | F4 C4 | CDEF A4 | !fermata!^F4 C4 | D4 D4 | C2 =B,2 ^C4 | D4 C4 | %8
w: Te|lu- * cis|an- te|ter- * * * mi-|num, re-|rum Cre-|a- * *|po- sci-|
 !fermata!C4 C4 | E4 D4 | E4 =B,4 | C4 G4 | !fermata!^F4 G4 | C4 E4 | F4 C4 | C2 F2 A4 | %16
w: mus, ut|so- li-|ta cle-|men- ti-|a sis|prae- sul|et cu-|sto- * di-|
 !fermata!^F8 |] %17
w: a.|
V:3
 F4 |[M:2/2] B2 A2 A4 | A2 B2 G4 | A3 d d2 ^c2 | !fermata!A4 A4 | A4 B4 | G4 A4 | F4 A4 | %8
w: Te|lu- * cis|an- * te|ter- * mi- *|num, re-|rum Cre-|a- tor,|po- sci-|
 !fermata!G4 A4 | G4 B4 | c4 G4 | A4 G4 | !fermata!A4 G4 | A4 A4 | A2 B2 A4 | A4 d2 ^c2 | %16
w: mus, ut|so- li-|ta cle-|men- ti-|a sis|prae- sul|et _ cu-|sto- di- *|
 !fermata!A8 |] %17
w: a.|
V:4
 D,4 |[M:2/2] G,2 D,2 A,,4 | D,2 B,,2 C,4 | F,3 B, A,4 |"^-natural" !fermata!D,4 F,4 | D,4 B,,4 | %6
w: Te|lu- * cis|an- * te|ter- * mi-|num, re-|rum Cre-|
 C,2 E,2 A,,4 | D,4 F,4 | !fermata!C,4 A,,4 | C,4 G,4 | C,4 E,4 | F,4 C,4 | !fermata!D,4 C,4 | %13
w: a- * tor,|po- sci-|mus, ut|so- li-|ta cle-|men- ti-|a sis|
 F,2 C,2 A,,4 | D,2 B,,2 A,,4 | F,4 A,4 | !fermata!D,8 |] %17
w: prae- * sul|et _ cu-|sto- di-|a.|

